X: 590
T: Drama Köprüsü
C: Arif Şentürk
O: Turkey
F: http://compmusic.upf.edu/node/140
N: ussak--turku--turkaksagi--drama_koprusu--
N: makam= ussak
N: form= turku
N: usul= turkaksagi = 5/8
M: 5/8
L: 1/16
K: C _2/4B   
Q: 1/4=168
%%MIDI tuningsystem comma53
AA3 e6 | e4e6  | e2g2 e2e2 d2 | d4{e}c6  | \
w:  D ra ma   |  köp rü  |  sü  *  bre   |  Ha *  san   | 
d4 e6 | f2 g2e4d2  | d8-d2 | d4{e}c6  | 
w:  dar dır   |  ge *  çil  |  mez    |  Ha *  san   | 
d4 e6 | f2 g2e4d2  | d8-d2 | d8-d2  | e4 c4 e2 | \
w:  dar dır   |  ge *  çil  |  mez    |   |  So ğuk  | 
d4B4d2  | c4 A4 c2 | B2 A2G6  | 
w:  tur  su  |  la rı   |  Ha *  san   | 
A2B2 c4 B2 | c2 d2B4A2  | A8-A2 | A8-A2  | \
w:  bir  *  tas   |  i *  çil  |  mez    |   | 
e4 c4 e2 | d4B4d2  | c4 A4 c2 | 
w:  So ğuk  |  tur  su  |  la rı   | 
B2 A2G6  | A2B2 c4 B2 | c2 d2B4A2  | A8-A2 | A8-A2  | \
w:  Ha *  san   |  bir  *  tas   |  i *  çil  |  mez    |   | 
A4 e6 | e4e6  | e2g2 e2e2 d2 | 
w:  A na  |  dan  ge  |  çi *  lir   | 
d4{e}c6  | d4 e6 | f2 g2e4d2  | d8-d2 | d4{e}c6  | \
w:  Ha *  san   |  yâr dan   |  ge *  çil  |  mez    |  Ha *  san   | 
d4 e6 | f2 g2e4d2  | d8-d2 | d8-d2  | 
w:  yâr dan   |  ge *  çil  |  mez    |   | 
e4 c4 e2 | d4B4d2  | c4 A4 c2 | B2 A2G6  | \
w:  At  mar  |  ti ni   |  Deb re li   |  Ha *  san   | 
A2B2 c4 B2 | c2 d2B4A2  | A8-A2 | 
w:  dağ *  lar   |  in *  le  |  sin    | 
A8-A2  | ee3 c4 e2 | d4B4d2  | c4 A4 c2 | B2 A2G6  | \
w:   |  D ra ma   |  mah pu  |  sun da   |  Ha *  san   | 
A2B2 c4 B2 | c2 d2B4A2  | 
w:  dost *  lar   |  din *  le  | 
A8-A2 | A8-A2  | AA3 e6 | e4e6  | e2g2 e2e2 d2 | \
w:  sin    |   |  D ra ma   |  köp rü  |  sü  *  bre   | 
d4{e}c6  | d4 e6 | f2 g2e4d2  | 
w:  Ha *  san   |  dar dır   |  ge *  çil  | 
d8-d2 | d4{e}c6  | d4 e6 | f2 g2e4d2  | d8-d2 | d8-d2  | \
w:  mez    |  Ha *  san   |  dar dır   |  ge *  çil  |  mez    |   | 
e4 c4 e2 | d4B4d2  | c4 A4 c2 | 
w:  So ğuk  |  tur  su  |  la rı   | 
B2 A2G6  | A2B2 c4 B2 | c2 d2B4A2  | A8-A2 | A8-A2  | \
w:  Ha *  san   |  bir  *  tas   |  i *  çil  |  mez    |   | 
e4 c4 e2 | d4B4d2  | 
w:  So ğuk  |  tur  su  | 
c4 A4 c2 | B2 A2G6  | A2B2 c4 B2 | c2 d2B4A2  | A8-A2 | A8-A2  | \
w:  la rı   |  Ha *  san   |  bir  *  tas   |  i *  çil  |  mez    |   | 
A4 e6 | e4e6  | 
w:  A na  |  dan  ge  | 
e2g2 e2e2 d2 | d4{e}c6  | d4 e6 | f2 g2e4d2  | d8-d2 | \
w:  çi *  lir   |  Ha *  san   |  yâr dan   |  ge *  çil  |  mez    | 
d4{e}c6  | d4 e6 | f2 g2e4d2  | 
w:  Ha *  san   |  yâr dan   |  ge *  çil  | 
d8-d2 | d8-d2  | e4 c4 e2 | d4B4d2  | c4 A4 c2 | \
w:  mez    |   |  At  mar  |  ti ni   |  Deb re li   | 
B2 A2G6  | A2B2 c4 B2 | c2 d2B4A2  | 
w:  Ha *  san   |  dağ *  lar   |  in *  le  | 
A8-A2 | A8-A2  | ee3 c4 e2 | d4B4d2  | c4 A4 c2 | \
w:  sin    |   |  D ra ma   |  mah pu  |  sun da   | 
B2 A2G6  | A2B2 c4 B2 | 
w:  Ha *  san   |  dost *  lar   | 
c2 d2B4A2  | A8-A2 | A8-A2  | |


